X:21201
T:Saint Anne's
R:Reel
B:Tuneworks Tunebook 2 (https://www.tuneworks.co.uk/)
G:Tuneworks
Z:Jon Warbrick <jon.warbrick@googlemail.com>
M:4/4
L:1/8
K:D
|: de |"D" fedf edcB | A2 FA DAFA | "G" B2 GB EBGB | "D" A2 FA DAFA |
"D" fedf edcB | A2 FA DAFA | "G" Beed"A" cABc | "D" eddc d2 :|
|: de | "D" f2 fe fedc | "G" Bggf g2 gf | "A" edcB ABce | baa^g a2 a=g |
"D" f2 fe fedc | "G" Bggf g2 gf | "A" edcB ABce | eddc"D" d2 :|